lib/flags/s/076.svg

<svg xmlns="http://www.w3.org/2000/svg" fill="none" viewBox="0 0 16 12"><mask id="076_svg__a" width="16" height="12" x="0" y="0" mask-type="alpha" maskUnits="userSpaceOnUse"><path fill="#fff" d="M0 0H16V12H0z"/></mask><g mask="url(#076_svg__a)"><path fill="#093" fill-rule="evenodd" d="M0 0V12H16V0H0Z" clip-rule="evenodd"/><mask id="076_svg__b" width="16" height="12" x="0" y="0" mask-type="alpha" maskUnits="userSpaceOnUse"><path fill="#fff" fill-rule="evenodd" d="M0 0V12H16V0H0Z" clip-rule="evenodd"/></mask><g mask="url(#076_svg__b)"><g fill-rule="evenodd" clip-rule="evenodd" filter="url(#076_svg__c)"><path fill="#FFD221" d="M7.96339 1.85202L14.0643 6.10375L7.8804 10.0856L1.90446 6.02134L7.96339 1.85202Z"/><path fill="url(#076_svg__d)" d="M7.96339 1.85202L14.0643 6.10375L7.8804 10.0856L1.90446 6.02134L7.96339 1.85202Z"/></g><path fill="#2E42A5" fill-rule="evenodd" d="M8 8.59998C9.38071 8.59998 10.5 7.48069 10.5 6.09998C10.5 4.71926 9.38071 3.59998 8 3.59998C6.61929 3.59998 5.5 4.71926 5.5 6.09998C5.5 7.48069 6.61929 8.59998 8 8.59998Z" clip-rule="evenodd"/><mask id="076_svg__e" width="6" height="6" x="5" y="3" mask-type="alpha" maskUnits="userSpaceOnUse"><path fill="#fff" fill-rule="evenodd" d="M8 8.59998C9.38071 8.59998 10.5 7.48069 10.5 6.09998C10.5 4.71926 9.38071 3.59998 8 3.59998C6.61929 3.59998 5.5 4.71926 5.5 6.09998C5.5 7.48069 6.61929 8.59998 8 8.59998Z" clip-rule="evenodd"/></mask><g fill="#F7FCFF" mask="url(#076_svg__e)"><path fill-rule="evenodd" d="M7.19 7.285 7.07832 7.34371 7.09965 7.21936 7.0093 7.13129 7.13416 7.11314 7.19 7 7.24584 7.11314 7.3707 7.13129 7.28035 7.21936 7.30168 7.34371 7.19 7.285zM8.19 7.285 8.07832 7.34371 8.09965 7.21936 8.0093 7.13129 8.13416 7.11314 8.19 7 8.24584 7.11314 8.3707 7.13129 8.28035 7.21936 8.30168 7.34371 8.19 7.285zM8.19 7.88498 8.07832 7.94369 8.09965 7.81933 8.0093 7.73126 8.13416 7.71312 8.19 7.59998 8.24584 7.71312 8.3707 7.73126 8.28035 7.81933 8.30168 7.94369 8.19 7.88498zM7.69 5.785 7.57832 5.84371 7.59965 5.71936 7.5093 5.63129 7.63416 5.61314 7.69 5.5 7.74584 5.61314 7.8707 5.63129 7.78035 5.71936 7.80168 5.84371 7.69 5.785zM7.69 6.785 7.57832 6.84371 7.59965 6.71936 7.5093 6.63129 7.63416 6.61314 7.69 6.5 7.74584 6.61314 7.8707 6.63129 7.78035 6.71936 7.80168 6.84371 7.69 6.785zM6.98999 6.285 6.87831 6.34371 6.89964 6.21936 6.80929 6.13129 6.93415 6.11314 6.98999 6 7.04583 6.11314 7.17069 6.13129 7.08034 6.21936 7.10167 6.34371 6.98999 6.285zM6.28998 6.68502 6.1783 6.74374 6.19963 6.61938 6.10927 6.53131 6.23414 6.51317 6.28998 6.40002 6.34582 6.51317 6.47068 6.53131 6.38033 6.61938 6.40165 6.74374 6.28998 6.68502zM8.59002 4.98495 8.47835 5.04366 8.49967 4.91931 8.40932 4.83124 8.53418 4.81309 8.59002 4.69995 8.64586 4.81309 8.77073 4.83124 8.68037 4.91931 8.7017 5.04366 8.59002 4.98495z" clip-rule="evenodd"/><path d="M4.9624 5.49863L5.03759 4.50146C7.43656 4.68236 9.33001 5.47114 10.6941 6.87425L9.9771 7.57132C8.79481 6.35521 7.13119 5.66217 4.9624 5.49863Z"/></g></g></g><defs><filter id="076_svg__c" width="12.16" height="8.234" x="1.904" y="1.852" color-interpolation-filters="sRGB" filterUnits="userSpaceOnUse"><feFlood flood-opacity="0" result="BackgroundImageFix"/><feColorMatrix in="SourceAlpha" values="0 0 0 0 0 0 0 0 0 0 0 0 0 0 0 0 0 0 127 0"/><feOffset/><feColorMatrix values="0 0 0 0 0.0313726 0 0 0 0 0.368627 0 0 0 0 0 0 0 0 0.28 0"/><feBlend in2="BackgroundImageFix" result="effect1_dropShadow"/><feBlend in="SourceGraphic" in2="effect1_dropShadow" result="shape"/></filter><linearGradient id="076_svg__d" x1="16" x2="16" y1="12" y2="0" gradientUnits="userSpaceOnUse"><stop stop-color="#FFC600"/><stop offset="1" stop-color="#FFDE42"/></linearGradient></defs></svg>

<svg xmlns="http://www.w3.org/2000/svg" fill="none" viewBox="0 0 16 12"><mask id="076_svg__a" width="16" height="12" x="0" y="0" maskUnits="userSpaceOnUse"><path fill="#fff" d="M0 0h16v12H0z"/></mask><g mask="url(#076_svg__a)"><path fill="#093" fill-rule="evenodd" d="M0 0v12h16V0H0z" clip-rule="evenodd"/><mask id="076_svg__b" width="16" height="12" x="0" y="0" maskUnits="userSpaceOnUse"><path fill="#fff" fill-rule="evenodd" d="M0 0v12h16V0H0z" clip-rule="evenodd"/></mask><g mask="url(#076_svg__b)"><g fill-rule="evenodd" clip-rule="evenodd" filter="url(#076_svg__c)"><path fill="#FFD221" d="M7.963 1.852l6.101 4.252-6.184 3.982L1.904 6.02l6.06-4.169z"/><path fill="url(#076_svg__d)" d="M7.963 1.852l6.101 4.252-6.184 3.982L1.904 6.02l6.06-4.169z"/></g><path fill="#2E42A5" fill-rule="evenodd" d="M8 8.6a2.5 2.5 0 100-5 2.5 2.5 0 000 5z" clip-rule="evenodd"/><mask id="076_svg__e" width="6" height="6" x="5" y="3" maskUnits="userSpaceOnUse"><path fill="#fff" fill-rule="evenodd" d="M8 8.6a2.5 2.5 0 100-5 2.5 2.5 0 000 5z" clip-rule="evenodd"/></mask><g fill="#F7FCFF" mask="url(#076_svg__e)"><path fill-rule="evenodd" d="M7.19 7.285l-.112.059.022-.125-.09-.088.124-.018L7.19 7l.056.113.125.018-.09.088.02.125-.111-.059zm1 0l-.112.059.022-.125-.09-.088.124-.018L8.19 7l.056.113.125.018-.09.088.02.125-.111-.059zm0 .6l-.112.059.022-.125-.09-.088.124-.018.056-.113.056.113.125.018-.09.088.02.125-.111-.059zm-.5-2.1l-.112.059.022-.125-.09-.088.124-.018.056-.113.056.113.125.018-.09.088.02.125-.111-.059zm0 1l-.112.059.022-.125-.09-.088.124-.018.056-.113.056.113.125.018-.09.088.02.125-.111-.059zm-.7-.5l-.112.059.022-.125-.09-.088.124-.018L6.99 6l.056.113.125.018-.09.088.02.125-.11-.059zm-.7.4l-.112.059.022-.125-.09-.088.124-.018.056-.113.056.113.125.018-.09.088.02.125-.111-.059zm2.3-1.7l-.112.059.022-.125-.09-.088.124-.018.056-.113.056.113.125.018-.09.088.02.125-.111-.059z" clip-rule="evenodd"/><path d="M4.962 5.499l.076-.998c2.399.181 4.292.97 5.656 2.373l-.717.697C8.795 6.355 7.131 5.662 4.962 5.5z"/></g></g></g><defs><linearGradient id="076_svg__d" x1="16" x2="16" y1="12" y2="0" gradientUnits="userSpaceOnUse"><stop stop-color="#FFC600"/><stop offset="1" stop-color="#FFDE42"/></linearGradient><filter id="076_svg__c" width="12.16" height="8.234" x="1.904" y="1.852" color-interpolation-filters="sRGB" filterUnits="userSpaceOnUse"><feFlood flood-opacity="0" result="BackgroundImageFix"/><feColorMatrix in="SourceAlpha" values="0 0 0 0 0 0 0 0 0 0 0 0 0 0 0 0 0 0 127 0"/><feOffset/><feColorMatrix values="0 0 0 0 0.0313726 0 0 0 0 0.368627 0 0 0 0 0 0 0 0 0.28 0"/><feBlend in2="BackgroundImageFix" result="effect1_dropShadow"/><feBlend in="SourceGraphic" in2="effect1_dropShadow" result="shape"/></filter></defs></svg>
